X: 18461
T: Hurry The Jug
R: jig
M: 6/8
K: Edorian
|:E|EGE G2 A|BAG FGA|BAG GED|EGE GED|
EGE G2 A|BAG FGA|BAG GED|EGE E2:|
|:E|AFA d2 d|ded d2 B|AFA d2 B|BAG FED|
B2 d e2 g|fed e2 d|B2 d e2 g|faf fed|
faf efe|ded d2 B|AFA d2 B|BAG FED|
EGE G2 A|BAG FGA|BAG GED|EGE E2:|

